svgs/regular/windsock.svg

<svg xmlns="http://www.w3.org/2000/svg" viewBox="0 0 512 512"><!--! Font Awesome Pro 6.0.0-alpha3 by @fontawesome - https://fontawesome.com License - https://fontawesome.com/license (Commercial License) --><path d="M486.5 122.7l-320-66.67c-2.221-.4629-4.428-.6836-6.594-.6836C142.7 55.34 128 69.32 128 87.35V104H48v-80C48 10.74 37.25 0 24 0S0 10.74 0 24v464C0 501.3 10.75 512 24 512s24-10.75 24-24v-176H128v16.65c0 18.03 14.72 32.01 31.93 32.01c2.166 0 4.371-.2227 6.594-.6855l320-66.67C501.4 290.2 512 277.1 512 261.1V154C512 138.9 501.4 125.8 486.5 122.7zM128 264H48v-112H128V264zM368 147v121.9l-96 20V127L368 147zM176 107l48 10v181.9l-48 10V107zM464 248.1l-48 10V157l48 10V248.1z"/></svg>

<svg xmlns="http://www.w3.org/2000/svg" viewBox="0 0 512 512"><!-- Font Awesome Pro 6.0.0-alpha2 by @fontawesome - https://fontawesome.com License - https://fontawesome.com/license (Commercial License) --><path d="M486.527 122.693L166.527 56.025C164.307 55.563 162.1 55.342 159.934 55.342C142.717 55.342 128 69.324 128 87.354V104H48V24C48 10.744 37.254 0 24 0S0 10.744 0 24V488C0 501.254 10.746 512 24 512S48 501.254 48 488V312H128V328.646C128 346.674 142.719 360.658 159.934 360.658C162.1 360.658 164.305 360.436 166.527 359.973L486.527 293.307C501.365 290.215 512 277.137 512 261.979V154.02C512 138.863 501.365 125.785 486.527 122.693ZM128 264H48V152H128V264ZM368 147.029V268.969L272 288.969V127.029L368 147.029ZM176 107.029L224 117.029V298.969L176 308.969V107.029ZM464 248.969L416 258.969V157.029L464 167.029V248.969Z"/></svg>
